X:1
T:Foxell, 11.12.11.12
T:William James Foxell (1857-1933)
T:Foxell, 11.12.11.12
T:Public Domain
C:William James Foxell (1857-1933)
Z:Public Domain
%%score ( 1 2 ) ( 3 4 )
L:1/8
M:4/4
K:Eb
V:1 treble 
V:2 treble 
V:3 bass 
V:4 bass 
V:1
 [EG]4 [B,B]2 [A,E]2 | (E4 z2) F2 x2 | [B,D]2 E2 [EB]2 [DA]2 | [DA]4 [EG]4 | [EG]4 [EG]2 [EF]2 | %5
 [Dc]2 [DB]2 [EB]2 [Ee]2 | [Fd]2 [FB]2 [=Ad]2 [Ac]2 | (B6 A2) | [EG]4 [EB]2 E2 | (E4 z2) F2 x2 | %10
 [EB]2 [EB]2 [Cc]2 [Fd]2 | [Ee]4 E2 [EF]2 | [EG]2 [EB]2 [Ed]2 [Ec]2 | [EB]2 [=EB]2 [CA]2 C2 | %14
 (B,2 E2) (E2 D2) | E8 |] %16
V:2
 x8 | G6 D4 | x2 E2 x4 | x8 | x8 | x8 | x8 | F8 | x6 E2 | G6 D4 | x8 | x4 E2 x2 | x8 | x6 C2 | %14
 E4 F4 | E8 |] %16
V:3
 (B,2 E2) [E,D]2 [E,C]2 | [E,B,]4 [A,B,]4 x2 | [G,B,]2 [G,B,]2 [F,B,]2 [B,,B,]2 | %3
 (B,2 C2) (E,2 D,2) | (C,2 B,,2) [=A,,C]2 [A,,C]2 | [A,,F,]2 [A,B,]2 [G,B,]2 [_G,B,]2 | %6
 [F,B,]2 [F,D]2 [F,F]2 [F,E]2 | (E4 D4) | (E2 D2) [E,_D]2 [E,C]2 | [E,B,]4 [A,B,]4 x2 | %10
 [G,B,]2 [G,B,]2 [F,A,]2 [F,A,]2 | (G,2 A,2) [=C,=A,]2 [_C,A,]2 | %12
 [B,,B,]2 [B,,G,]2 [=A,,_G,]2 [A,,G,]2 | [B,,G,]2 [C,G,]2 [F,A,]2 [A,,F,]2 | [B,,G,]4 [B,,A,]4 | %15
 [E,G,]8 |] %16
V:4
 E,4 x4 | x10 | x8 | E,4 B,4 | C4 x4 | x8 | x8 | B,,8 | E,4 x4 | x10 | x8 | _C,4 x4 | x8 | x8 | %14
 x8 | x8 |] %16

